X:97
T:Dublin Jig. HSJJ.099, The
M:9/8
L:1/8
Q:3/8=120
B:HSJ Jackson,Wyresdale,Lancs.1823
R:
O:
A:England, Wyresdale Lancashire
H:1823
Z:vmp.Chris Partington.
K:A
f|ecA ABA agf| ecA FBA GFE|ecA Ace agf|ecA FBG A2:|
|:c|BGE EGB dcB|cAc ece aec|BGE EGB dcB|cde dcB A2:|

